X:108
T:Tre Fontane
M:C
L:1/8
K:C
P:Prima pars
d4 d2d2 | edef efed | gfef cfcf | edef gfef | d^cde gfed |
c4 c2Bc | d4 cdcd || [P:Mark 1] e4 e2gf | e2gf edec | d4d2d2 | edef edef |
gfef cfcf | edef gfef | d^cde gfed | c4c2Bc | d4 cdcd | a2ag fgfe |
d4c2Bc | edcd edcd || [P:Mark 2]A4A2 (3G^FG A2 (3GFG | A4A2A2 | a4a2a2 | efgf e2a2 |
a2ga gaff | efgf efef | d^cde gfed | c4c2Bc | d4cdcd | e4e2gf |
e2gfe2e2 || [P:Mark 3] g^fga gfge | =fefg fgfe | d=cde dcdB | c4c2c2 | d2=cB cBcd |
e2ed e2ed | f2e2 d^cde | gfed ede^c | d2d^c d2e2 | f2e2d2c2 | =B2AB c2Bc |
d2cd edcd | A4A2A2 || [P:Mark 4]B2AB c2Bc | d2cd e2z2 | f2f2e2e2 | d2d2 fedc |
B4cBcA | B4 edef ||1 [P:Apertto] B4B2BAB2BA | B4B2z2 :|2 [P:Chiusso]e2de fedc | B4 d4 |
cBcA BABc | edcd edcd | A4 A2(3G^FG A2(3GFG | A4A2A2 |] [P:Sechunda pars] a4a2a2 | e4a4 |
e4a4 | a2ag baga e4 | a2ag fgfe | d4 ^cdcd | e4e2gf | e2gf e2e2 |
a4e2a2 | agfg e2g2 | gfef d2f2 | edef d2f2 | edef gfef | d^cde gfed | c4c2Bc |
d4 "[A Mark 1]"cdcd |] [P:Terça pars] A4 A2^GA | B4 B2dc | B2dc BcBA | c4c2c2 | d2cB cBc2 | d4 d2cd |
fede c2d2 | e4 fefe | dedc dcdB | c4c2c2 | d2cB cBcd | e2ed ede2 |
f2e2 edec | d2dc d2z2 | eee2 ddd2 | cBcd B2c2 | d4 c2cd | fed dcdB |
c4g4 | c4f4 | e4e2e2 | d4d2d2 | cBcd cdcd | edef edef | e2fe fefe |
f2d2 ^cdcd | e4 e2gf | e2gf "[A Mark 3]" e2e2 |] [P:Quarta pars] g8 | d4g4 | d4g4 | g2^fe fefg |
a4a2a2 | e4e2ed | e2ed e4 | a4 e4 | a2ga g2f2 | e4d4 | cBcd cdcd |
edef efed | fefg fgfe | d4 ^cdcd | e4 e2gf | e2gf e2e2 |[M:12/8] g2^f gfg a2g aga |
c'3 g2c' bab ^f2b | aga e2a a/g/fg d2g | g/f/ef c2f e3 g/f/ef | d3c3 BAB cBc |
dcd ede f/2e/2fg f2e | d3 d/c/dB c3A3 | c3f3 e3 egf | efg fed ^f3 f2g | aga gaf g3 g2g |
d3 d2d e/d/ef g2d | e/d/ef g2f e2e g3 | feg fef d3 c3 | BAB d2^c d2c dcd | [M:C] A4 "[A Mark 4]"A2A2 |] 





